src/lib/packages/icons/src/assets/line/cloud-lock.svg

<svg width="24" height="24" viewBox="0 0 24 24" fill="none" xmlns="http://www.w3.org/2000/svg">
<path d="M22.75 13C22.75 16.171 20.171 18.75 17 18.75H11C10.586 18.75 10.25 18.414 10.25 18C10.25 17.586 10.586 17.25 11 17.25H17C19.344 17.25 21.25 15.344 21.25 13C21.25 10.656 19.344 8.75 17 8.75C16.717 8.75 16.4449 8.77503 16.1689 8.82703C15.8609 8.88503 15.5551 8.74801 15.3931 8.48401C15.1011 8.01301 14.7301 7.57298 14.2891 7.17798C13.2511 6.25798 11.904 5.75 10.5 5.75C8.532 5.75 6.72411 6.74199 5.66211 8.40399C5.44011 8.75199 4.97595 8.856 4.62695 8.633C4.27695 8.41 4.17495 7.94598 4.39795 7.59698C5.73595 5.50198 8.017 4.25098 10.5 4.25098C12.271 4.25098 13.9721 4.893 15.2871 6.06C15.7071 6.436 16.0761 6.84498 16.3911 7.28198C16.5921 7.26098 16.794 7.25098 17 7.25098C20.171 7.24998 22.75 9.829 22.75 13ZM8.75 15.786V17.715C8.75 18.99 7.98911 19.751 6.71411 19.751H3.28589C2.01089 19.751 1.25 18.99 1.25 17.715V15.786C1.25 14.802 1.707 14.129 2.5 13.871V12.75C2.5 11.372 3.621 10.25 5 10.25C6.379 10.25 7.5 11.372 7.5 12.75V13.871C8.293 14.129 8.75 14.802 8.75 15.786ZM4 12.75V13.75H6V12.75C6 12.198 5.552 11.75 5 11.75C4.448 11.75 4 12.198 4 12.75ZM7.25 15.786C7.25 15.346 7.15511 15.25 6.71411 15.25H3.28589C2.84489 15.25 2.75 15.345 2.75 15.786V17.715C2.75 18.155 2.84489 18.251 3.28589 18.251H6.71411C7.15511 18.251 7.25 18.156 7.25 17.715V15.786Z" fill="currentColor"/>
</svg>

<svg xmlns="http://www.w3.org/2000/svg" width="24" height="24" fill="none"><path fill="currentColor" d="M22.75 13A5.756 5.756 0 0 1 17 18.75h-6a.75.75 0 0 1 0-1.5h6A4.254 4.254 0 0 0 21.25 13 4.254 4.254 0 0 0 17 8.75a4.44 4.44 0 0 0-.831.077.745.745 0 0 1-.776-.343 6.015 6.015 0 0 0-1.104-1.306A5.706 5.706 0 0 0 10.5 5.75a5.717 5.717 0 0 0-4.838 2.654.75.75 0 0 1-1.264-.807A7.21 7.21 0 0 1 10.5 4.251c1.771 0 3.472.642 4.787 1.809.42.376.79.785 1.104 1.222A5.754 5.754 0 0 1 22.75 13Zm-14 2.786v1.929c0 1.275-.76 2.036-2.036 2.036H3.286c-1.275 0-2.036-.761-2.036-2.036v-1.929c0-.984.457-1.657 1.25-1.915V12.75c0-1.378 1.121-2.5 2.5-2.5s2.5 1.122 2.5 2.5v1.121c.793.258 1.25.931 1.25 1.915ZM4 12.75v1h2v-1a1 1 0 0 0-2 0Zm3.25 3.036c0-.44-.095-.536-.536-.536H3.286c-.441 0-.536.095-.536.536v1.929c0 .44.095.536.536.536h3.428c.441 0 .536-.095.536-.536v-1.929Z"/></svg>
